assets/icons/informations/checklist_rtl_fill.svg

<svg viewBox="0 0 24 24" xmlns="http://www.w3.org/2000/svg">
<path d="M3 8.99989C2.71667 8.99989 2.47933 8.90389 2.288 8.71189C2.096 8.52055 2 8.28322 2 7.99989C2 7.71655 2.096 7.47889 2.288 7.28689C2.47933 7.09555 2.71667 6.99989 3 6.99989H10C10.2833 6.99989 10.521 7.09555 10.713 7.28689C10.9043 7.47889 11 7.71655 11 7.99989C11 8.28322 10.9043 8.52055 10.713 8.71189C10.521 8.90389 10.2833 8.99989 10 8.99989H3ZM3 16.9999C2.71667 16.9999 2.47933 16.9039 2.288 16.7119C2.096 16.5206 2 16.2832 2 15.9999C2 15.7166 2.096 15.4789 2.288 15.2869C2.47933 15.0956 2.71667 14.9999 3 14.9999H10C10.2833 14.9999 10.521 15.0956 10.713 15.2869C10.9043 15.4789 11 15.7166 11 15.9999C11 16.2832 10.9043 16.5206 10.713 16.7119C10.521 16.9039 10.2833 16.9999 10 16.9999H3ZM15.675 10.2999L13.525 8.14989C13.3417 7.96655 13.25 7.73322 13.25 7.44989C13.25 7.16655 13.3417 6.93322 13.525 6.74989C13.7083 6.56655 13.9417 6.47489 14.225 6.47489C14.5083 6.47489 14.7417 6.56655 14.925 6.74989L16.35 8.17489L19.9 4.62489C20.1 4.42489 20.3333 4.32889 20.6 4.33689C20.8667 4.34555 21.1 4.44989 21.3 4.64989C21.4833 4.84989 21.575 5.08322 21.575 5.34989C21.575 5.61655 21.4833 5.84989 21.3 6.04989L17.075 10.2999C16.875 10.4999 16.6417 10.5999 16.375 10.5999C16.1083 10.5999 15.875 10.4999 15.675 10.2999ZM15.675 18.2999L13.525 16.1499C13.3417 15.9666 13.25 15.7332 13.25 15.4499C13.25 15.1666 13.3417 14.9332 13.525 14.7499C13.7083 14.5666 13.9417 14.4749 14.225 14.4749C14.5083 14.4749 14.7417 14.5666 14.925 14.7499L16.35 16.1749L19.9 12.6249C20.1 12.4249 20.3333 12.3289 20.6 12.3369C20.8667 12.3456 21.1 12.4499 21.3 12.6499C21.4833 12.8499 21.575 13.0832 21.575 13.3499C21.575 13.6166 21.4833 13.8499 21.3 14.0499L17.075 18.2999C16.875 18.4999 16.6417 18.5999 16.375 18.5999C16.1083 18.5999 15.875 18.4999 15.675 18.2999Z" fill="inherit"/>
</svg>

<svg viewBox="0 0 24 24" xmlns="http://www.w3.org/2000/svg"><path d="M3 9a1 1 0 0 1-.7-.3A1 1 0 0 1 2 8c0-.3.1-.5.3-.7.2-.2.4-.3.7-.3h7c.3 0 .5.1.7.3.2.2.3.4.3.7 0 .3-.1.5-.3.7a1 1 0 0 1-.7.3H3Zm0 8a1 1 0 0 1-.7-.3A1 1 0 0 1 2 16c0-.3.1-.5.3-.7.2-.2.4-.3.7-.3h7c.3 0 .5.1.7.3.2.2.3.4.3.7 0 .3-.1.5-.3.7a1 1 0 0 1-.7.3H3Zm12.7-6.7-2.2-2.2a1 1 0 0 1-.3-.7c0-.2.1-.5.3-.7l.7-.2c.3 0 .5 0 .7.2l1.5 1.5 3.5-3.6c.2-.2.4-.3.7-.3a1 1 0 0 1 1 1c0 .3-.1.5-.3.7l-4.2 4.3a1 1 0 0 1-1.4 0Zm0 8-2.2-2.2a1 1 0 0 1-.3-.7c0-.2.1-.5.3-.7l.7-.2c.3 0 .5 0 .7.2l1.5 1.5 3.5-3.6c.2-.2.4-.3.7-.3a1 1 0 0 1 1 1c0 .3-.1.5-.3.7l-4.2 4.3a1 1 0 0 1-1.4 0Z" fill="inherit"/></svg>
